src/lib/packages/icons/src/assets/filled/star-shooting.svg

<svg width="24" height="24" viewBox="0 0 24 24" fill="none" xmlns="http://www.w3.org/2000/svg">
<path d="M16.243 15.989C16.059 16.168 15.9749 16.426 16.0179 16.678L16.5949 20.025C16.7119 20.704 15.9979 21.222 15.3869 20.902L12.363 19.319C12.136 19.2 11.866 19.2 11.639 19.319L8.61688 20.9C8.00388 21.221 7.28892 20.702 7.40692 20.022L7.98297 16.677C8.02697 16.424 7.942 16.167 7.758 15.988L5.237 13.542C4.774 13.093 5.02891 12.308 5.66791 12.216L9.15497 11.712C9.40897 11.675 9.62788 11.516 9.74188 11.287L11.2519 8.23999C11.5579 7.62199 12.442 7.62199 12.749 8.23999L14.259 11.287C14.373 11.516 14.5919 11.675 14.8459 11.712L18.3329 12.216C18.9719 12.309 19.228 13.093 18.764 13.542L16.243 15.989ZM11.9999 5.75C12.4139 5.75 12.7499 5.414 12.7499 5V3C12.7499 2.586 12.4139 2.25 11.9999 2.25C11.5859 2.25 11.2499 2.586 11.2499 3V5C11.2499 5.414 11.5859 5.75 11.9999 5.75ZM17.9999 9.75C18.4139 9.75 18.7499 9.414 18.7499 9V3C18.7499 2.586 18.4139 2.25 17.9999 2.25C17.5859 2.25 17.2499 2.586 17.2499 3V9C17.2499 9.414 17.5859 9.75 17.9999 9.75ZM5.99994 9.75C6.41394 9.75 6.74994 9.414 6.74994 9V3C6.74994 2.586 6.41394 2.25 5.99994 2.25C5.58594 2.25 5.24994 2.586 5.24994 3V9C5.24994 9.414 5.58594 9.75 5.99994 9.75Z" fill="currentColor"/>
</svg>

<svg xmlns="http://www.w3.org/2000/svg" width="24" height="24" fill="none"><path fill="currentColor" d="M16.243 15.989a.78.78 0 0 0-.225.689l.577 3.347a.833.833 0 0 1-1.208.877l-3.024-1.583a.779.779 0 0 0-.724 0L8.617 20.9a.833.833 0 0 1-1.21-.878l.576-3.345a.775.775 0 0 0-.225-.689l-2.521-2.446a.777.777 0 0 1 .43-1.326l3.488-.504a.781.781 0 0 0 .587-.425l1.51-3.047a.836.836 0 0 1 1.497 0l1.51 3.047a.781.781 0 0 0 .587.425l3.487.504a.776.776 0 0 1 .431 1.326l-2.521 2.447ZM12 5.75a.75.75 0 0 0 .75-.75V3a.75.75 0 0 0-1.5 0v2c0 .414.336.75.75.75Zm6 4a.75.75 0 0 0 .75-.75V3a.75.75 0 0 0-1.5 0v6c0 .414.336.75.75.75Zm-12 0A.75.75 0 0 0 6.75 9V3a.75.75 0 0 0-1.5 0v6c0 .414.336.75.75.75Z"/></svg>
